public/new/vector4.svg

<svg fill="none" height="22" viewBox="0 0 28 22" width="28" xmlns="http://www.w3.org/2000/svg"><path d="m23.3219 2.31686c-1.7559-.80569-3.6389-1.399284-5.6076-1.739262-.0359-.006561-.0717.009836-.0902.042632-.2421.43071-.5104.9926-.6982 1.43425-2.1175-.31701-4.2242-.31701-6.2983 0-.1879-.45146-.4658-1.00354-.70909-1.43425-.01847-.031702-.05428-.048099-.09013-.042632-1.96767.338891-3.85062.932492-5.60763 1.739262-.01521.00656-.02825.0175-.0369.0317-3.57157 5.33586-4.549973 10.54054-4.070001 15.68074.002172.0251.016288.0492.035835.0645 2.356416 1.7305 4.639016 2.7811 6.879226 3.4774.03585.0109.07384-.0022.09666-.0317.52992-.7237 1.0023-1.4867 1.40732-2.2891.0239-.047.00108-.1028-.04777-.1214-.74927-.2842-1.46273-.6307-2.14902-1.0243-.05429-.0317-.05863-.1093-.0087-.1465.14443-.1082.28889-.2208.42679-.3345.02495-.0208.05972-.0252.08905-.012 4.50866 2.0585 9.38986 2.0585 13.84526 0 .0294-.0142.0641-.0099.0902.0109.1379.1137.2823.2274.4279.3356.0499.0372.0466.1148-.0077.1465-.6862.4012-1.3997.7401-2.1501 1.0232-.0488.0186-.0705.0755-.0466.1225.4137.8013.886 1.5643 1.4062 2.288.0217.0306.0608.0437.0966.0328 2.2511-.6963 4.5337-1.7469 6.8901-3.4774.0207-.0153.0337-.0383.0359-.0634.5744-5.9426-.9622-11.10465-4.0733-15.68075-.0076-.01529-.0206-.02623-.0358-.03279zm-14.11572 12.58264c-1.35742 0-2.47589-1.2463-2.47589-2.7767 0-1.5305 1.09678-2.77672 2.47589-2.77672 1.38992 0 2.49762 1.25712 2.47582 2.77672 0 1.5304-1.0967 2.7767-2.47582 2.7767zm9.15422 0c-1.3574 0-2.4759-1.2463-2.4759-2.7767 0-1.5305 1.0968-2.77672 2.4759-2.77672 1.3899 0 2.4976 1.25712 2.4759 2.77672 0 1.5304-1.086 2.7767-2.4759 2.7767z" fill="#fff"/></svg>

<svg width="28" height="22" viewBox="0 0 28 22" fill="none" xmlns="http://www.w3.org/2000/svg">
<path d="M23.3219 2.31686C21.566 1.51117 19.683 0.917576 17.7143 0.577598C17.6784 0.571037 17.6426 0.587434 17.6241 0.62023C17.382 1.05094 17.1137 1.61283 16.9259 2.05448C14.8084 1.73747 12.7017 1.73747 10.6276 2.05448C10.4397 1.60302 10.1618 1.05094 9.91851 0.62023C9.90004 0.588528 9.86423 0.572131 9.82838 0.577598C7.86071 0.916489 5.97776 1.51009 4.22075 2.31686C4.20554 2.32342 4.1925 2.33436 4.18385 2.34856C0.61228 7.68442 -0.366123 12.8891 0.113849 18.0293C0.116021 18.0544 0.130137 18.0785 0.149684 18.0938C2.5061 19.8243 4.7887 20.8749 7.02891 21.5712C7.06476 21.5821 7.10275 21.569 7.12557 21.5395C7.65549 20.8158 8.12787 20.0528 8.53289 19.2504C8.55679 19.2034 8.53397 19.1476 8.48512 19.129C7.73585 18.8448 7.02239 18.4983 6.3361 18.1047C6.28181 18.073 6.27747 17.9954 6.3274 17.9582C6.47183 17.85 6.61629 17.7374 6.75419 17.6237C6.77914 17.6029 6.81391 17.5985 6.84324 17.6117C11.3519 19.6702 16.2331 19.6702 20.6885 17.6117C20.7179 17.5975 20.7526 17.6018 20.7787 17.6226C20.9166 17.7363 21.061 17.85 21.2066 17.9582C21.2565 17.9954 21.2532 18.073 21.1989 18.1047C20.5127 18.5059 19.7992 18.8448 19.0488 19.1279C19 19.1465 18.9783 19.2034 19.0022 19.2504C19.4159 20.0517 19.8882 20.8147 20.4084 21.5384C20.4301 21.569 20.4692 21.5821 20.505 21.5712C22.7561 20.8749 25.0387 19.8243 27.3951 18.0938C27.4158 18.0785 27.4288 18.0555 27.431 18.0304C28.0054 12.0878 26.4688 6.92575 23.3577 2.34965C23.3501 2.33436 23.3371 2.32342 23.3219 2.31686ZM9.20618 14.8995C7.84876 14.8995 6.73029 13.6532 6.73029 12.1228C6.73029 10.5923 7.82707 9.34608 9.20618 9.34608C10.5961 9.34608 11.7038 10.6032 11.682 12.1228C11.682 13.6532 10.5853 14.8995 9.20618 14.8995ZM18.3604 14.8995C17.003 14.8995 15.8845 13.6532 15.8845 12.1228C15.8845 10.5923 16.9813 9.34608 18.3604 9.34608C19.7503 9.34608 20.858 10.6032 20.8363 12.1228C20.8363 13.6532 19.7503 14.8995 18.3604 14.8995Z" fill="white"/>
</svg>
